packages/ui-icons/svg/Line/materials-required-light.svg

<svg viewBox="0 0 1920 1920" version="1.1" xmlns="http://www.w3.org/2000/svg">
    <path d="M740.133333,1272.3869 L735.866667,1267.69357 C700.56,1232.81357 663.226667,1206.57357 625.253333,1187.48023 C921.253333,849.773566 1574.69333,181.720233 1777.36,173.506899 C1783.97333,173.826899 1791.01333,173.826899 1799.86667,182.680233 C1803.17333,185.986899 1803.28,194.413566 1803.17333,199.000233 C1795.28,399.213566 1126.26667,1055.1069 792.08,1349.29357 C777.893333,1324.01357 760.933333,1298.52023 740.133333,1272.3869 L740.133333,1272.3869 Z M721.253333,1550.1469 C667.493333,1669.93357 419.386667,1726.1469 257.893333,1746.73357 C284.133333,1679.7469 311.653333,1578.20023 311.653333,1447.53357 C311.653333,1375.85357 362.533333,1300.5469 430.053333,1272.28023 C449.786667,1264.0669 470.373333,1260.01357 491.28,1260.01357 C546,1260.01357 603.6,1287.7469 658.64,1341.29357 C724.666667,1425.24023 745.786667,1495.4269 721.253333,1550.1469 L721.253333,1550.1469 Z M277.626667,180.546899 L380.346667,283.266899 L242.426667,421.293566 L138.96,317.826899 L277.626667,180.546899 Z M1909.73333,203.266899 C1911.54667,154.413566 1892.02667,124.013566 1869.52,101.506899 C1852.77333,84.6535659 1821.30667,64.6002326 1773.09333,66.9468992 C1548.66667,76.1202326 1036.98667,586.733566 733.2,911.960233 L317.84,496.706899 L455.76,358.680233 L778,680.920233 L853.413333,605.506899 L315.6,67.5868992 C294.906667,46.8935659 261.413333,46.7868992 240.293333,67.3735659 L25.8933333,279.640233 C15.76,289.666899 10,303.213566 10,317.506899 C10,331.693566 15.6533333,345.346899 25.68,355.266899 L660.666667,990.253566 C590.906667,1066.20023 538.746667,1124.8669 512.72,1154.6269 C470.8,1151.1069 428.986667,1157.1869 388.986667,1173.8269 C280.613333,1219.05357 204.986667,1331.5869 204.986667,1447.53357 C204.986667,1655.7469 124.56,1777.6669 124.026667,1778.6269 L62.5866667,1868.01357 L170.853333,1862.04023 C226.213333,1859.05357 714.533333,1825.6669 818.533333,1593.88023 C838.053333,1550.36023 842.32,1503.96023 832.826667,1455.00023 C889.36,1404.97357 1036.88,1272.81357 1205.84,1108.8669 L1714.64,1617.56023 L1714.64,1755.48023 L1576.72,1755.48023 L1138.96,1317.8269 L1063.54667,1393.24023 L1532.56,1862.1469 L1821.30667,1862.1469 L1821.30667,1573.40023 L1281.89333,1034.09357 C1577.36,741.293566 1902.69333,380.013566 1909.73333,203.266899 L1909.73333,203.266899 Z" stroke="none" stroke-width="1" fill-rule="evenodd"/>
</svg>

<svg viewBox="0 0 1920 1920" xmlns="http://www.w3.org/2000/svg">
    <path d="m740.133 1272.387-4.266-4.693c-35.307-34.88-72.64-61.12-110.614-80.214 296-337.706 949.44-1005.76 1152.107-1013.973 6.613.32 13.653.32 22.507 9.173 3.306 3.307 3.413 11.734 3.306 16.32-7.893 200.214-676.906 856.107-1011.093 1150.294-14.187-25.28-31.147-50.774-51.947-76.907Zm-18.88 277.76c-53.76 119.787-301.866 176-463.36 196.587 26.24-66.987 53.76-168.534 53.76-299.2 0-71.68 50.88-146.987 118.4-175.254 19.734-8.213 40.32-12.266 61.227-12.266 54.72 0 112.32 27.733 167.36 81.28 66.027 83.946 87.147 154.133 62.613 208.853Zm-443.626-1369.6 102.72 102.72-137.92 138.027L138.96 317.827l138.667-137.28Zm1632.106 22.72c1.814-48.853-17.706-79.253-40.213-101.76-16.747-16.853-48.213-36.907-96.427-34.56C1548.667 76.12 1036.987 586.734 733.2 911.96L317.84 496.707 455.76 358.68 778 680.92l75.413-75.413L315.6 67.587c-20.693-20.693-54.187-20.8-75.307-.213L25.893 279.64C15.76 289.667 10 303.214 10 317.507c0 14.187 5.653 27.84 15.68 37.76l634.987 634.987c-69.76 75.946-121.92 134.613-147.947 164.373-41.92-3.52-83.733 2.56-123.733 19.2-108.374 45.227-184 157.76-184 273.707 0 208.213-80.427 330.133-80.96 331.093l-61.44 89.387 108.266-5.974c55.36-2.986 543.68-36.373 647.68-268.16 19.52-43.52 23.787-89.92 14.294-138.88 56.533-50.026 204.053-182.186 373.013-346.133l508.8 508.693v137.92h-137.92l-437.76-437.653-75.413 75.413 469.013 468.907h288.747V1573.4l-539.414-539.306c295.467-292.8 620.8-654.08 627.84-830.827Z" fill-rule="evenodd"/>
</svg>
